!!!!SEGMENT: pl-kk--kk-i-7--024_anonim--gaude-maria-virgo.krn
!!!cenid: 16xx:814
!!!COM: Anonim
!!!COM-rismid: pe30004985
!!!CDT:
!!!CNT:
!!!OTL: Gaude Maria Virgo
!!!PDT:
!!!AGN: Sacred
!!!SMS-siglum: PL-Kk
!!!SMS-shelfmark: Kk.I.7
!!!SMS-shelfwork: 024 W
!!!SMS-variant:
!!!SMS-altvar:
!!!NIFC-rismid: 300258101
!!!URL-scan: http://repozytorium.nifc.pl/skany/pl-kk-nut--i-7
!!!ONB-nifc: UWAGA: C (skan 0015-0016, s.24-26), A (0101-0102, s.23-25), T (0177-0178, s.19-20), B (0267-0268, s.24-26). Następny utwór: Alleluia Ave Maria
**kern	**text	**kern	**text	**kern	**text	**kern	**text
*part4	*part4	*part3	*part3	*part2	*part2	*part1	*part1
*staff4	*staff4	*staff3	*staff3	*staff2	*staff2	*staff1	*staff1
*I"BASSVS.	*	*I"TENOR.	*	*I"ALTVS.	*	*I"CANTVS.	*
*I'B	*	*I'T	*	*I'A	*	*I'S	*
*clefF4	*	*clefC4	*	*clefC4	*	*clefC3	*
*k[b-]	*	*k[b-]	*	*k[b-]	*	*k[b-]	*
*F:	*	*F:	*	*F:	*	*F:	*
*M2/1	*	*M2/1	*	*M2/1	*	*M2/1	*
*met(C|)	*	*met(C|)	*	*met(C|)	*	*met(C|)	*
=1-	=1-	=1-	=1-	=1-	=1-	=1-	=1-
*all\right	*	*all\right	*	*all\right	*	*all\right	*
!LO:TX:a:B:t=Tractus de B.V.M. post Septuagesimam	!	!LO:TX:a:B:t=Tractus post Septuagesimá(m)	!	!LO:TX:a:B:t=Tractus post Septuages(imám)	!	!LO:TX:a:B:t=Tractus post Septuag(e)ſ(imám)	!
!	!	!	!	!	!	!LO:TX:t=P:problem:t. 32, 66, 116 - przejścia między cząstkami na razie zostawione jak w źródle (konsultacja z J.I.)	!
!LO:TX:t=P:problem:przed 1r pomocniczo custos G jako pierwszy dźwięk w A, T	!	!	!	!	!	!LO:TX:t=P:problem:por. pl-kk--kk-i-6--012_anonim-gaude-maria-virgo (to ten sam utwór bez S, główne róźnice w zakończeniach poszcz. fragm.)	!
1rE	.	1G	Gau-	2.G/	Gau-	2r	.
.	.	.	.	.	.	2.G/	Gau-
.	.	.	.	4A/	.	.	.
*	*	*lig	*	*	*	*	*
2.GG/	Gau-	1G	-de	4B-\	.	.	.
.	.	.	.	4c\	.	4A/	.
*	*	*	*	*2\right	*	*	*
.	.	.	.	2d\	.	4B-/	.
4AA/	.	.	.	.	.	4c/	.
=2-	=2-	=2-	=2-	=2-	=2-	=2-	=2-
4BB-/	.	1F	.	2D/	-de	4d\	.
4C/	.	.	.	.	.	4e\	.
*	*	*	*	*	*	*2\right	*
2.D/	.	.	.	4D/	gau-	2.f\	.
.	.	.	.	4E/	.	.	.
*	*	*Xlig	*	*	*	*	*
*	*	*lig	*	*	*	*	*
.	.	1D	.	4F/	.	.	.
4E\	.	.	.	4G/	.	4e\	.
*2\right	*	*	*	*	*	*	*
2F\	.	.	.	2.A/	.	2d\	.
=3-	=3-	=3-	=3-	=3-	=3-	=3-	=3-
2F\	-de	1F	.	.	.	2c/	.
.	.	.	.	4B-\	.	.	.
4FF/	gau-	.	.	4c\	.	4A/	.
4GG/	.	.	.	4B-\	.	4B-/	.
*	*	*Xlig	*	*	*	*	*
*	*	*lig	*	*	*	*	*
4AA/	.	1C	.	4A/	.	4c/	.
4BB-/	.	.	.	4G/	.	4d/	.
4C/	.	.	.	2A/	.	2c/	.
4AA/	.	.	.	.	.	.	.
=4-	=4-	=4-	=4-	=4-	=4-	=4-	=4-
2BB-/	.	1D	.	1F	-de	2B-/	-de
2D/	.	.	.	.	.	4A/	gau-
.	.	.	.	.	.	4B-/	.
*	*	*Xlig	*	*	*	*	*
*	*	*lig	*	*	*	*	*
1C	.	1E	.	4G/	gau-	4c/	.
.	.	.	.	4F/	.	4d/	.
.	.	.	.	4G/	.	4e\	.
.	.	.	.	4A/	.	4c\	.
=5-	=5-	=5-	=5-	=5-	=5-	=5-	=5-
2BB-/	.	1F	.	2B-\	.	4d\	.
.	.	.	.	.	.	4e\	.
!	!	!	!	!LO:SIC:v:t=custos B	!	!	!
2AA/	.	.	.	2c\	.	1f	.
*	*	*Xlig	*	*	*	*	*
!	!	!	!	!LO:PB:g=original	!	!	!
*	*	*lig	*	*	*	*	*
2GG/	.	1G	.	2B-\	.	.	.
2C/	.	.	.	2.c\	.	2e\	.
=6-	=6-	=6-	=6-	=6-	=6-	=6-	=6-
4FF/	.	1A	.	.	.	2.f\	.
4GG/	.	.	.	4B-\	.	.	.
4AA/	.	.	.	2.A/	.	.	.
4FF/	.	.	.	.	.	4e\	.
*	*	*Xlig	*	*	*	*	*
*	*	*lig	*	*	*	*	*
4GG/	.	1B-	.	.	.	4d\	.
4AA/	.	.	.	4G/	.	4c\	.
4BB-/	.	.	.	1G/	.	2d\	.
4C/	.	.	.	.	.	.	.
=7-	=7-	=7-	=7-	=7-	=7-	=7-	=7-
!LO:SIC:v:t=custos GG	!	!	!	!	!	!	!
1D	.	1A	.	.	.	2.d\	.
.	.	.	.	2F/	.	.	.
.	.	.	.	.	.	4c/	.
*	*	*Xlig	*	*	*	*	*
!LO:PB:g=original	!	!	!	!	!	!LO:N:vis=2	!
!	!	!	!	!	!	!LO:TX:b:t=P:problem:# below	!
!	!	!	!	!	!	!LO:N:acc=#	!
2GG/	-de	1G	.	2G/	-de	2Bn/	-de
*	*	*	*	*	*ij	*	*
2C/	gau-	.	.	2E/	gau-	2rA	.
=8-	=8-	=8-	=8-	=8-	=8-	=8-	=8-
!LO:SIC:v:s=2BBn	!	!	!	!	!	!	!
2BB-/	-de	1G	Ma-	2D/	.	2r	.
2C/	Ma-	.	.	2C/	-de	2c/	gau-
*	*	*lig	*	*	*Xij	*	*
!	!	!	!	!	!	!LO:TX:b:t=P:problem:# below	!
!	!	!	!	!	!	!LO:N:acc=#	!
2GG/	-ri-	1G	-ri-	2D/	Ma-	2Bn/	-de
2C/	-a	.	.	2E/	-ri-	1c	Ma-
=9-	=9-	=9-	=9-	=9-	=9-	=9-	=9-
!	!	!LO:SIC:v:t=custos G	!	!	!	!	!
4FF/	Vir-	1A	.	2F/	-a	.	.
4GG/	.	.	.	.	.	.	.
4AA/	.	.	.	2c\	Ma-	1f	-ri-
4BB-/	.	.	.	.	.	.	.
*lig	*	*Xlig	*	*	*	*	*
!	!	!LO:LB:g=original	!	!	!	!	!
1C	.	1G	.	2.c\	-ri-	.	.
!	!	!	!	!	!	!LO:SIC:v:t=custos d	!
.	.	.	.	.	.	2e\	-a
.	.	.	.	4B-\	.	.	.
!	!	!	!	!	!	!LO:LB:g=original	!
=10-	=10-	=10-	=10-	=10-	=10-	=10-	=10-
*	*	*lig	*	*	*	*	*
1D	.	1F	-a	2A\	.	1.d	Vir-
.	.	.	.	2.B-\	.	.	.
*Xlig	*	*	*	*	*	*	*
2E-X\	-go	1G	.	.	.	.	.
.	.	.	.	4A/	.	.	.
2E-\	Ma-	.	.	1G/	.	2c\	.
*	*	*Xlig	*	*	*	*	*
=11-	=11-	=11-	=11-	=11-	=11-	=11-	=11-
*	*	*lig	*	*	*	*	*
2.D/	-ri-	1A	Vir-	.	.	1d	.
.	.	.	.	1F	-a	.	.
4C/	.	.	.	.	.	.	.
!LO:N:acc=#	!	!	!	!	!	!	!
2BBn/	.	1G	.	.	.	2d\	-go
2C/	-a	.	.	2E/	Vir-	2.g\	Vir-
*	*	*Xlig	*	*	*	*	*
=12-	=12-	=12-	=12-	=12-	=12-	=12-	=12-
*	*	*lig	*	*	*	*	*
2AA/	Vir-	1A	.	2F/	-go	.	.
.	.	.	.	.	.	4f\	.
2FF/	-go	.	.	2.c\	Vir-	1f	.
1C	Vir-	1G	.	.	.	.	.
.	.	.	.	4G/	.	.	.
.	.	.	.	2c\	.	2e\	.
*	*	*Xlig	*	*	*	*	*
=13-	=13-	=13-	=13-	=13-	=13-	=13-	=13-
2D/	.	1F	.	1A	-go	2.f\	.
2.F\	.	.	.	.	.	.	.
.	.	.	.	.	.	8e\L	.
.	.	.	.	.	.	8d\J	.
*	*	*lig	*	*	*	*	*
.	.	1A	-go	2r	.	4c\	.
8Eny\L	.	.	.	.	.	4d\	.
8D\J	.	.	.	.	.	.	.
4C/	.	.	.	2.c\	Vir-	2.e-X\	.
4D/	.	.	.	.	.	.	.
=14-	=14-	=14-	=14-	=14-	=14-	=14-	=14-
*lig	*	*	*	*	*	*	*
1E-X	.	1G	.	.	.	.	.
.	.	.	.	8B-\L	.	8d\L	.
.	.	.	.	8A\J	.	8c\J	.
.	.	.	.	2.G/	.	4B-y/	.
.	.	.	.	.	.	4c/	.
*col	*	*Xlig	*	*	*	*	*
*	*	*lig	*	*	*	*	*
2.D/	.	1A	.	.	.	1d	.
.	.	.	.	8F/L	.	.	.
!	!	!	!	!LO:SIC:v:t=custos F	!	!	!
.	.	.	.	8E/J	.	.	.
!	!	!	!	!LO:LB:g=original	!	!	!
.	.	.	.	1F/	.	.	.
*Xlig	*	*	*	*	*	*	*
4C/	.	.	.	.	.	.	.
*Xcol	*	*	*	*	*	*	*
=15-	=15-	=15-	=15-	=15-	=15-	=15-	=15-
2BB-y/	.	1B-	.	.	.	2d\	-go
4AA/	.	.	.	2G/	.	1eny	Ma-
4GG/	.	.	.	.	.	.	.
*	*	*Xlig	*	*	*	*	*
*	*	*lig	*	*	*	*	*
2.AA/	.	1c	.	2C/	-go	.	.
.	.	.	.	2.c\	Vir-	1f	-ri-
!LO:SIC:v:t=custos C	!	!	!	!	!	!	!
4BB-/	.	.	.	.	.	.	.
!LO:LB:g=original	!	!	!	!	!	!	!
=16-	=16-	=16-	=16-	=16-	=16-	=16-	=16-
2C/	.	1G	.	.	.	.	.
.	.	.	.	8B-\L	.	.	.
.	.	.	.	8A\J	.	.	.
2C/	-go	.	.	4G/	.	2e\	-a
.	.	.	.	4A/	.	.	.
*	*	*Xlig	*	*	*	*lig	*
2.D/	cun-	1F,	.	4B-\	.	1d	Vir-
.	.	.	.	4F/	.	.	.
.	.	.	.	1B-\	.	.	.
4Eny\	.	.	.	.	.	.	.
=17-	=17-	=17-	=17-	=17-	=17-	=17-	=17-
2F\	.	1F	cun-	.	.	1c	.
2FF/	-ctas	.	.	2A/	.	.	.
*	*	*	*	*	*	*Xlig	*
2BB-/	hae-	1F	-ctas	2B-\	-go	1.d	-go
2D/	-re-	.	.	2.A/	cun-	.	.
=18-	=18-	=18-	=18-	=18-	=18-	=18-	=18-
*	*	*lig	*	*	*	*	*
2.D/	-ſes	1A	hae-	.	.	.	.
.	.	.	.	4G/	.	.	.
.	.	.	.	4F/	.	2d\	cun-
4C/	.	.	.	4E/	.	.	.
4BB-/	.	1B-	.	2D/	.	2d\	-ctas
4AA/	.	.	.	.	.	.	.
2GG/	.	.	.	1d\	.	4g\	Hae-
.	.	.	.	.	.	4f\	.
*	*	*Xlig	*	*	*	*	*
=19-	=19-	=19-	=19-	=19-	=19-	=19-	=19-
2.C/	ſo-	1G	-re-	.	.	4e\	.
.	.	.	.	.	.	4d\	.
.	.	.	.	1c	-ctas	1e	.
4D/	.	.	.	.	.	.	.
4E\	.	1G	-ſes	.	.	.	.
4F\	.	.	.	.	.	.	.
!	!	!	!	!LO:N:acc=#	!	!	!
2G\	.	.	.	2Bn\	ha-	2d\	-re-
=20-	=20-	=20-	=20-	=20-	=20-	=20-	=20-
*	*	*lig	*	*	*	*	*
2C/	-la	1G	ſo-	2.c\	.	4e\	-ſes
.	.	.	.	.	.	4f\	.
2C/	ſo-	.	.	.	.	4g\	.
.	.	.	.	4B-y\	.	4e\	.
*	*	*	*	*	*	*lig	*
2D/	-la	1F	.	2A\	-re-	1f	.
2D/	in-	.	.	2d\	-ſes	.	.
*	*	*Xlig	*	*	*	*	*
=21-	=21-	=21-	=21-	=21-	=21-	=21-	=21-
!	!	!	!	!	!	!LO:TX:t=P:problem:♭ przed ligaturą	!
!	!	!	!	!	!	!LO:SIC:v:t=custos d	!
2E-X\	-ter-	1G	.	2B-\	So-	1e-X	.
2C/	-e-	.	.	2c\	.	.	.
*	*	*lig	*	*	*	*Xlig	*
!	!	!	!	!	!	!LO:PB:g=original	!
1BB-	-mi-	1B-	.	2d\	-la	1d	So-
*	*	*	*	*lig	*	*	*
.	.	.	.	1B-\	in-	.	.
=22-	=22-	=22-	=22-	=22-	=22-	=22-	=22-
1F	-ſti	1c	.	.	.	2.f\	-la
*	*	*	*	*col	*	*	*
.	.	.	.	2.A\	.	.	.
.	.	.	.	.	.	4eny\	.
*	*	*Xlig	*	*Xlig	*	*	*
*	*	*lig	*	*	*	*	*
1G	ſo-	1B-	-la	.	.	4d\	.
.	.	.	.	4G/	-ter-	4c/	.
*	*	*	*	*Xcol	*	*	*
.	.	.	.	1G/	-e-	1d	.
=23-	=23-	=23-	=23-	=23-	=23-	=23-	=23-
1D	-la	1A	.	.	.	.	.
!	!	!	!	!LO:TX:b:t=P:problem:# below	!	!	!
.	.	.	.	2F#X/	-mi-	2d\	in-
*lig	*	*Xlig	*	*	*	*	*
*	*	*lig	*	*	*	*	*
1G	in-	1B-	.	2G/	-ſti	2.d\	-ter-
.	.	.	.	1B-\	So-	.	.
.	.	.	.	.	.	4e\	.
=24-	=24-	=24-	=24-	=24-	=24-	=24-	=24-
1F	.	1c	.	.	.	2f\	.
.	.	.	.	4A/	.	2f\	-e-
.	.	.	.	4G/	.	.	.
*Xlig	*	*Xlig	*	*	*	*	*
!	!	!LO:SIC:v:t=custos F	!	!	!	!	!
2.BB-/	-ter-	1B-	.	2Fny/	.	1.d	-mi-
.	.	.	.	2B-\	.	.	.
!LO:SIC:v:t=custos D	!	!	!	!	!	!	!
4C/	.	.	.	.	.	.	.
!LO:LB:g=original	!	!LO:LB:g=original	!	!	!	!	!
=25-	=25-	=25-	=25-	=25-	=25-	=25-	=25-
*	*	*lig	*	*	*	*	*
4D\	.	1F	in-	1A	-la	.	.
4Eny\	.	.	.	.	.	.	.
1F	-e-	.	.	.	.	2c/	.
!	!	!	!	!LO:SIC:v:t=custos c	!	!	!
.	.	1G	.	2G/	in-	2B-/	.
!	!	!	!	!LO:LB:g=original	!	!	!
2E\	mi-	.	.	1c\	-ter-	2G/	.
*	*	*Xlig	*	*	*	*	*
=26-	=26-	=26-	=26-	=26-	=26-	=26-	=26-
*	*	*lig	*	*	*	*	*
2F\	-ſti	1F	-ter-	.	.	2A/	.
1BB-	in-	.	.	2d\	-e-	4B-/	.
.	.	.	.	.	.	4c/	.
.	.	1B-	.	4D/	.	1d	.
.	.	.	.	8E/L	.	.	.
.	.	.	.	8F/J	.	.	.
2GG/	-ter-	.	.	1G/	.	.	.
*	*	*Xlig	*	*	*	*	*
=27-	=27-	=27-	=27-	=27-	=27-	=27-	=27-
*lig	*	*lig	*	*	*	*	*
1D	-e-	1A	.	.	.	1d	-ſti
!	!	!	!	!LO:TX:b:t=P:problem:# below	!	!	!
.	.	.	.	2F#/	-mi-	.	.
*col	*	*	*	*	*	*	*
2.G\	.	1B-	.	2G/	-ſti	2d\	in
.	.	.	.	1B-\	in-	1g\	ter-
*Xlig	*	*Xlig	*	*	*	*	*
4F\	.	.	.	.	.	.	.
*Xcol	*	*	*	*	*	*	*
=28-	=28-	=28-	=28-	=28-	=28-	=28-	=28-
*	*	*lig	*	*	*	*	*
2E\	.	1c	-e-	.	.	.	.
2F\	.	.	.	4A/	-ter-	4f\	.
.	.	.	.	4G/	.	4e\	.
2BB-/	.	1B-	.	2Fny/	.	1.d	.
2.GG/	.	.	.	1G/	-e-	.	.
*	*	*Xlig	*	*	*	*	*
=29-	=29-	=29-	=29-	=29-	=29-	=29-	=29-
*	*	*lig	*	*	*	*	*
.	.	1B-	-mi-	.	.	.	.
4AA/	.	.	.	.	.	.	.
4BB-/	.	.	.	2.d\	.	1g	.
4C/	.	.	.	.	.	.	.
1D	-mi-	1A	.	.	.	.	.
.	.	.	.	8c\L	.	.	.
.	.	.	.	8B-\J	.	.	.
.	.	.	.	2A/	.	2f\	-e-
*	*	*Xlig	*	*	*	*	*
=30-	=30-	=30-	=30-	=30-	=30-	=30-	=30-
*	*	*	*	*lig	*	*	*
2GG/	-ſti	1G	.	1B-	.	2.g\	.
*	*ij	*	*	*	*	*	*
2GG/	in-	.	.	.	.	.	.
.	.	.	.	.	.	4f\	.
*	*	*lig	*	*col	*	*	*
1C	-ter-	1G	-ſti	2.c\	.	4e\	.
.	.	.	.	.	.	4d\	.
.	.	.	.	.	.	2e\	.
*	*	*	*	*Xlig	*	*	*
.	.	.	.	4B-\	-mi-	.	.
*	*	*	*	*Xcol	*	*	*
=31-	=31-	=31-	=31-	=31-	=31-	=31-	=31-
1FF	-e-	1A	.	4A\	.	2.f\	.
.	.	.	.	4G/	.	.	.
.	.	.	.	1F	.	.	.
.	.	.	.	.	.	4e\	.
*	*	*Xlig	*	*	*	*	*
1BB-	-mi-	1B-	.	.	.	4d\	.
.	.	.	.	.	.	4c\	.
.	.	.	.	4E/	.	2d\	.
.	.	.	.	4D/	.	.	.
=32-	=32-	=32-	=32-	=32-	=32-	=32-	=32-
1GG	-ſti	1G;	.	2D/	.	2d\	-mi-
*	*Xij	*	*	*	*	*	*
!	!	!	!	!	!	!LO:SIC:v:t=custos B	!
.	.	.	.	2d\	.	2d\	-ſti
2ryy	.	2ryy	.	2c\	-ſti	2ryy	.
!	!	!	!	!	!	!LO:LB:g=original	!
=33-	=33-	=33-	=33-	=33-	=33-	=33-	=33-
4GG/	Quae	1G	Quae	2r	.	1B-	Quae
4AA/	.	.	.	.	.	.	.
4BB-/	.	.	.	2.d\	Quae	.	.
4C/	.	.	.	.	.	.	.
1D	.	1F	Ga-	.	.	2A/	Ga-
.	.	.	.	8c\L	.	.	.
.	.	.	.	8B-\J	.	.	.
.	.	.	.	4A\	.	2d\	-bri-
.	.	.	.	4B-\	.	.	.
=34-	=34-	=34-	=34-	=34-	=34-	=34-	=34-
2C/	Ga-	1G	-bri-	2c\	.	1.e-X	-e-
2.E-X\	-bri-	.	.	4B-\	.	.	.
.	.	.	.	4A\	.	.	.
*	*	*lig	*	*	*	*	*
.	.	1B-	-e-	4G/	.	.	.
!LO:SIC:v:t=custos G	!	!	!	!	!	!	!
4F\	.	.	.	4A/	.	.	.
!LO:LB:g=original	!	!	!	!LO:SIC:v:t=custos A	!	!	!
2G\	.	.	.	1B-\	.	2d\	.
!	!	!	!	!LO:LB:g=original	!	!	!
=35-	=35-	=35-	=35-	=35-	=35-	=35-	=35-
*lig	*	*	*	*	*	*	*
1F	-e-	1c	.	.	.	0f	.
.	.	.	.	2A/	.	.	.
*	*	*Xlig	*	*	*	*	*
*	*	*lig	*	*	*	*	*
1BB-	.	1B-	.	2B-\	Ga-	.	.
.	.	.	.	2d\	-bri-	.	.
*Xlig	*	*	*	*	*	*	*
=36-	=36-	=36-	=36-	=36-	=36-	=36-	=36-
2C/	-lis	1G	.	1c	-e-	2eny\	-lis
*	*ij	*	*	*	*	*	*
2E-X\	Quae	.	.	.	.	1g	Ar-
*	*	*Xlig	*	*	*	*	*
*	*	*lig	*	*	*	*	*
2.D/	Ga-	1A	.	1d	-lis	.	.
.	.	.	.	.	.	4f\	.
4C/	-bri-	.	.	.	.	4e\	.
=37-	=37-	=37-	=37-	=37-	=37-	=37-	=37-
2BB-/	-e-	1B-	.	2r	.	2d\	.
2GG/	.	.	.	2.d\	quae	1g	-chan-
*	*	*Xlig	*	*	*	*	*
*	*	*lig	*	*	*	*	*
1D	.	1A	.	.	.	.	.
.	.	.	.	8c\L	.	.	.
.	.	.	.	8B-\J	.	.	.
!	!	!	!	!	!	!LO:TX:t=P:problem:# above	!
.	.	.	.	2A/	.	2f#X\	-ge-
=38-	=38-	=38-	=38-	=38-	=38-	=38-	=38-
2GG,/	-lis	1G	.	2.B-\	Ga-	1.g	-li,
*	*Xij	*	*	*	*	*	*
2G\	Quae	.	.	.	.	.	.
.	.	.	.	4c\	.	.	.
*lig	*	*Xlig	*	*	*	*	*
*	*	*lig	*	*	*	*	*
1G	Ga-	1B-	.	2d\	.	.	.
.	.	.	.	1B-\	.	2d\	Quae
=39-	=39-	=39-	=39-	=39-	=39-	=39-	=39-
!	!	!LO:SIC:v:t=custos B	!	!	!	!	!
1F	.	1c	.	.	.	1fny	Ga-
.	.	.	.	2A/	-bri-	.	.
*Xlig	*	*Xlig	*	*	*	*	*
!	!	!LO:LB:g=original	!	!	!	!	!
*	*	*lig	*	*	*	*	*
1G	.	1B-	.	2B-\	-e-	2d\	-bri-
.	.	.	.	1d\	.	2g\	-e-
=40-	=40-	=40-	=40-	=40-	=40-	=40-	=40-
2D/	-bri-	1A	.	.	.	2.f\	.
1F	.	.	.	2c\	-lis	.	.
.	.	.	.	.	.	4g\	.
*	*	*Xlig	*	*	*	*	*
*	*	*lig	*	*	*ij	*	*
.	.	1c	.	2F/	Ga-	2a\	.
2Eny\	-e-	.	.	2G/	-bri-	2.g\	.
=41-	=41-	=41-	=41-	=41-	=41-	=41-	=41-
2D/	.	1d	.	2A/	-e-	.	.
.	.	.	.	.	.	4f\	.
2BB-/	.	.	.	2B-\	.	1f	.
*	*	*Xlig	*	*	*	*	*
*	*	*lig	*	*	*	*	*
1C	-lis	1c	.	1G	.	.	.
.	.	.	.	.	.	2e\	.
=42-	=42-	=42-	=42-	=42-	=42-	=42-	=42-
*	*ij	*	*	*	*	*	*
1FF	Quae	1A	.	2A/	.	1.f	-lis
.	.	.	.	1F	.	.	.
*	*	*Xlig	*	*	*	*	*
*	*	*lig	*	*	*	*	*ij
1BB-	Ga-	1B-	.	.	.	.	.
.	.	.	.	2B-\	.	2f\	Ga-
=43-	=43-	=43-	=43-	=43-	=43-	=43-	=43-
2F\	-bri-	1c	.	2A/	.	2f\	-bri-
2C/	-e-	.	.	1G	.	2e\	-e-
*	*	*Xlig	*	*	*	*	*
*	*	*lig	*	*	*	*	*
2.D/	.	1A	.	.	.	0d	.
.	.	.	.	4F/	.	.	.
4C/	.	.	.	4E/	.	.	.
=44-	=44-	=44-	=44-	=44-	=44-	=44-	=44-
2BB-/	.	1B-	.	2F/	.	.	.
2GG/	.	.	.	2G/	.	.	.
*	*	*Xlig	*	*	*	*	*
2C/	.	1G	-lis	2E/	.	2c/	-lis
*	*	*	*	*	*	*	*Xij
4BB-/	.	.	.	4D/	.	2.g\	Ar-
!LO:SIC:v:t=custos BB	!	!	!	!	!	!	!
4AA/	.	.	.	4C/	.	.	.
!LO:LB:g=original	!	!	!	!	!	!	!
=45-	=45-	=45-	=45-	=45-	=45-	=45-	=45-
!	!	!	!	!LO:SIC:v:t=custos G	!	!	!
2BB-/	.	1G,	.	2D/	-lis	.	.
*	*	*	*	*	*Xij	*	*
.	.	.	.	.	.	4f\	.
!	!	!	!	!LO:LB:g=original	!	!	!
2C/	.	.	.	2G/	Ar-	2e-X\	-chan-
!	!	!	!	!	!	!LO:SIC:v:t=custos d	!
2GG/	lis	1B-	Ar-	4G/	-chan-	2d\	.
*	*Xij	*	*	*	*	*	*
.	.	.	.	4A/	.	.	.
!	!	!	!	!	!	!LO:LB:g=original	!
2.G\	Ar-	.	.	4B-\	.	2d\	-ge-
.	.	.	.	4c\	.	.	.
=46-	=46-	=46-	=46-	=46-	=46-	=46-	=46-
*	*	*lig	*	*	*	*	*
.	.	1B-	-chan-	2d\	.	2G/	-li
4F\	.	.	.	.	.	.	.
2E-X\	-chan-	.	.	2G/	-ge-	2g\	Ar-
4D/	.	1d	.	2A/	-li	2.f\	-chan-
4C/	.	.	.	.	.	.	.
4BB-/	.	.	.	1B-\	Ar-	.	.
4C/	.	.	.	.	.	4eny\	.
*	*	*Xlig	*	*	*	*	*
=47-	=47-	=47-	=47-	=47-	=47-	=47-	=47-
*	*	*lig	*	*	*	*	*
4D/	.	1f	.	.	.	2d\	.
4Eny\	.	.	.	.	.	.	.
1F	.	.	.	4A/	.	2c/	.
.	.	.	.	4G/	.	.	.
.	.	1c	.	2A/	.	2f\	.
2C/	.	.	.	2G/	.	2e\	.
*	*	*Xlig	*	*	*	*	*
=48-	=48-	=48-	=48-	=48-	=48-	=48-	=48-
2.FF/	.	1A	.	1.F	.	2d\	.
.	.	.	.	.	.	4c/	.
4GG/	.	.	.	.	.	4B-/	.
*	*	*lig	*	*	*	*	*
4AA/	.	1c	.	.	.	2A/	.
4BB-/	.	.	.	.	.	.	.
2C/	.	.	.	2E/	.	4G/	.
.	.	.	.	.	.	4A/	.
=49-	=49-	=49-	=49-	=49-	=49-	=49-	=49-
2BB-/	.	1d	.	2F/	.	4B-/	.
.	.	.	.	.	.	4A/	.
2.GG/	.	.	.	1G	.	4B-/	.
.	.	.	.	.	.	4c/	.
*	*	*Xlig	*	*	*	*	*
*	*	*lig	*	*	*	*	*
.	.	1B-	.	.	.	2.d\	.
4AA/	.	.	.	.	.	.	.
4BB-/	.	.	.	2d\	.	.	.
4GG/	.	.	.	.	.	4B-/	.
=50-	=50-	=50-	=50-	=50-	=50-	=50-	=50-
4C/	.	1G	.	2c\	.	1.e-X	.
4D/	.	.	.	.	.	.	.
*lig	*	*	*	*	*	*	*
1E-X	.	.	.	2.B-\	.	.	.
*	*	*Xlig	*	*	*	*	*
*	*	*lig	*	*	*	*	*
.	.	1B-	.	.	.	.	.
.	.	.	.	4c\	.	.	.
1B-\	.	.	.	4d\	.	2d\	.
.	.	.	.	4B-\	.	.	.
*Xlig	*	*	*	*	*	*	*
=51-	=51-	=51-	=51-	=51-	=51-	=51-	=51-
*	*	*	*	*	*	*lig	*
.	.	1F	.	4c\	.	1f	.
.	.	.	.	4d\	.	.	.
2A\	.	.	.	2.c\	.	.	.
*	*	*Xlig	*	*	*	*	*
*	*	*lig	*	*	*	*col	*
1G	-ge-	1B-	.	.	.	2.d\	.
.	.	.	.	4B-\	.	.	.
.	.	.	.	1B-\	.	.	.
*	*	*	*	*	*	*Xlig	*
.	.	.	.	.	.	4eny\	.
*	*	*	*	*	*	*Xcol	*
=52-	=52-	=52-	=52-	=52-	=52-	=52-	=52-
1F	li	1c	.	.	.	1.f	ge-
.	.	.	.	4A/	.	.	.
.	.	.	.	4G/	.	.	.
*	*	*Xlig	*	*	*	*	*
!LO:SIC:v:t=custos F	!	!	!	!	!	!	!
*	*	*lig	*	*	*	*	*
1BB-	Ar-	1d	.	2F/	.	.	.
.	.	.	.	1B-\	-chan-	2f\	-li
!LO:LB:g=original	!	!	!	!	!	!	!
=53-	=53-	=53-	=53-	=53-	=53-	=53-	=53-
*	*	*	*	*	*	*	*ij
1F	-chan-	1c	.	.	.	1.f	Ar-
.	.	.	.	2A/	-ge-	.	.
*	*	*Xlig	*	*	*	*	*
*	*	*lig	*	*	*	*	*
2BB-/	.	1d	.	2.B-\	-li	.	.
2.GG/	.	.	.	.	.	2g\	-chan-
.	.	.	.	4A/	.	.	.
=54-	=54-	=54-	=54-	=54-	=54-	=54-	=54-
!	!	!LO:SIC:v:t=custos d	!	!	!	!	!
.	.	1B-	.	2G/	.	2.d\	.
4AA/	.	.	.	.	.	.	.
2.BB-/	.	.	.	2F/	.	.	.
.	.	.	.	.	.	4e\	.
*	*	*Xlig	*	*	*	*	*
!	!	!LO:LB:g=original	!	!	!	!	!
*	*	*lig	*	*	*	*	*
.	.	1d	.	2B-\	Ar-	2.f\	.
4C/	.	.	.	.	.	.	.
2.D/	.	.	.	4A/	-chan-	.	.
!	!	!	!	!LO:SIC:v:t=custos A	!	!LO:SIC:v:t=custos d	!
.	.	.	.	4G/	.	4e\	.
!	!	!	!	!LO:LB:g=original	!	!LO:LB:g=original	!
=55-	=55-	=55-	=55-	=55-	=55-	=55-	=55-
.	.	1f	.	2.A/	.	2d\	.
4Eny\	.	.	.	.	.	.	.
2.F\	.	.	.	.	.	2.c\	.
.	.	.	.	4G/	.	.	.
*	*	*Xlig	*	*	*	*	*
*	*	*lig	*	*	*	*	*
.	.	1c	.	2F/	.	.	.
8E\L	.	.	.	.	.	4d\	.
8D\J	.	.	.	.	.	.	.
4C/	.	.	.	1G/	.	1e-X\	.
4D/	.	.	.	.	.	.	.
=56-	=56-	=56-	=56-	=56-	=56-	=56-	=56-
2E-X\	.	1B-	.	.	.	.	.
2BB-/	.	.	.	1F	.	2d\	-ge-
*	*	*Xlig	*	*	*	*	*
2.C/	.	1G	.	.	.	1c	-li
*	*	*	*	*	*	*	*Xij
.	.	.	.	2E/	.	.	.
4BB-/	.	.	.	.	.	.	.
=57-	=57-	=57-	=57-	=57-	=57-	=57-	=57-
*	*	*lig	*	*	*	*	*
2AA/	.	1c	.	1A	.	2r	.
4GG/	.	.	.	.	.	2f\	Ar-
4FF/	.	.	.	.	.	.	.
2.GG/	.	1B-	.	4G/	.	1.d	-chan-
.	.	.	.	4A/	.	.	.
.	.	.	.	4B-\	.	.	.
4AA/	.	.	.	4c\	.	.	.
*	*	*Xlig	*	*	*	*	*
=58-	=58-	=58-	=58-	=58-	=58-	=58-	=58-
*	*	*lig	*	*	*	*	*
2BB-/	.	1G	-ge-	2d\	.	.	.
*	*	*	*	*lig	*	*	*
2C/	.	.	.	1c	.	2eny\	.
2AA/	.	1F	.	.	.	2f\	.
1BB-/	-ge-	.	.	1B-\	.	4d\	.
.	.	.	.	.	.	4c\	.
*	*	*Xlig	*	*Xlig	*	*	*
=59-	=59-	=59-	=59-	=59-	=59-	=59-	=59-
.	.	1F	-li	.	.	4d\	.
.	.	.	.	.	.	4e\	.
2AA/	-li	.	.	2c\	-ge-	4f\	.
.	.	.	.	.	.	8e\L	.
.	.	.	.	.	.	8f\J	.
*	*	*lig	*	*	*	*	*
1GG	.	1B-	di-	1.d	-li	1.g	.
=60-	=60-	=60-	=60-	=60-	=60-	=60-	=60-
2.D/	di-	1A	.	.	.	.	.
.	.	.	.	2A/	di-	4f\	.
4C/	.	.	.	.	.	4e\	.
*	*	*Xlig	*	*	*	*	*
4D/	.	1F	-ctis	2B-\	-ctis	2d\	.
!LO:SIC:v:t=custos F	!	!	!	!	!	!	!
4Eny\	.	.	.	.	.	.	.
!LO:LB:g=original	!	!	!	!	!	!	!
2.F\	.	.	.	2.A/	di-	4c/	.
.	.	.	.	.	.	4B-/	.
=61-	=61-	=61-	=61-	=61-	=61-	=61-	=61-
*	*	*lig	*	*	*	*	*
.	.	1A	cre-	.	.	2c/	-ge-
4E\	.	.	.	4G/	.	.	.
4D/	.	.	.	4F/	.	2d\	-li
4C/	.	.	.	4E/	.	.	.
2BB-/	.	1B-	.	2F/	.	2d\	di-
2GG/	-ctis	.	.	2G/	-ctis	2B-/	-ctis
*	*	*Xlig	*	*	*	*	*
=62-	=62-	=62-	=62-	=62-	=62-	=62-	=62-
2AA/	cre-	1c	.	2E/	cre-	1A	cre-
2FF/	-di-	.	.	2F/	-di-	.	.
2.GG/	-di-	1B-	-di-	2D/	-di-	4G/	.
.	.	.	.	.	.	4A/	.
.	.	.	.	2G/	.	4B-/	.
4AA/	.	.	.	.	.	4c/	.
=63-	=63-	=63-	=63-	=63-	=63-	=63-	=63-
*	*	*lig	*	*	*	*	*
2.BB-/	.	1B-	-di-	4F/	.	0d	.
.	.	.	.	4D/	.	.	.
.	.	.	.	1G	.	.	.
4C/	.	.	.	.	.	.	.
1D	-ſti	1A	.	.	.	.	.
!	!	!	!	!LO:TX:b:t=P:problem:# below	!	!	!
.	.	.	.	2F#X/	.	.	.
*	*	*Xlig	*	*	*	*	*
=64-	=64-	=64-	=64-	=64-	=64-	=64-	=64-
2GG/	.	1G	.	2G/	-ſti	1d	-di-
!	!	!	!	!LO:N:acc=#	!	!	!
2G\	cre-	.	.	2Bn\	cre-	.	.
*	*	*lig	*	*	*	*	*
!	!	!	!	!LO:SIC:v:t=custos d	!	!LO:SIC:v:t=custos f	!
1C	-di-	1G	-ſti.	0c	-di-	1e	-di-
!	!	!	!	!LO:LB:g=original	!	!LO:LB:g=original	!
=65-	=65-	=65-	=65-	=65-	=65-	=65-	=65-
1F	.	1A	.	.	.	1f	.
*	*	*Xlig	*	*	*	*	*
*	*	*lig	*	*	*	*	*
1BB-	-di-	1B-	.	2d\	.	1.f	.
.	.	.	.	2d\	-di-	.	.
=66-	=66-	=66-	=66-	=66-	=66-	=66-	=66-
!	!	!LO:TX:t=P:problem:podwójna kreska taktowa	!	!	!	!	!
1C	-ſti	1G;<	.	1c	-sti	.	.
.	.	.	.	.	.	2e\	.
*	*	*Xlig	*	*	*	*	*
1ryy	.	1ryy	.	1ryy	.	2d\	ſti
.	.	.	.	.	.	2d\	.
=67-	=67-	=67-	=67-	=67-	=67-	=67-	=67-
2D/	Du(m)	1B-	Dum	2Fny/	Dum	2d\	Dum
1E-X	Vir-	.	.	1G	Vir-	1g	Vir-
.	.	1c	.	.	.	.	.
2F\	.	.	.	2A/	.	2f\	.
=68-	=68-	=68-	=68-	=68-	=68-	=68-	=68-
*	*	*lig	*	*	*	*	*
4BB-/	.	1d	Vir-	2B-y\	.	1f	-go
4C/	.	.	.	.	.	.	.
4D\	.	.	.	4A/	.	.	.
4Eny\	.	.	.	4G/	.	.	.
*	*	*	*	*	*	*	*ij
2.F\	.	1c	.	2.A/	.	2.f\	Dum
4E\	.	.	.	4G/	.	4g\	.
*	*	*Xlig	*	*	*	*	*
=69-	=69-	=69-	=69-	=69-	=69-	=69-	=69-
!	!	!LO:SIC:v:t=custos d	!	!	!	!	!
2F\	.	1c	-go	4A/	.	2f\	Vir-
.	.	.	.	4B-\	.	.	.
2A\	.	.	.	1c	.	2e\	.
!	!	!LO:PB:g=original	!	!	!	!	!
*	*	*lig	*	*	*	*	*
2.G\	.	1d	.	.	.	1.g	.
!	!	!	!	!LO:TX:t=P:problem:# above	!	!	!
!	!	!	!	!LO:N:acc=#	!	!	!
.	.	.	.	2Bn\	.	.	.
!LO:SIC:v:t=custos E	!	!	!	!	!	!	!
4F\	.	.	.	.	.	.	.
!LO:PB:g=original	!	!	!	!	!	!	!
=70-	=70-	=70-	=70-	=70-	=70-	=70-	=70-
2E\	.	1c	.	4c\	.	.	.
.	.	.	.	4Bny\	.	.	.
2F\	.	.	.	4A\	.	2.f\	.
.	.	.	.	4G/	.	.	.
*	*	*Xlig	*	*	*	*	*
*	*	*lig	*	*	*	*	*
2D/	.	1d	.	4A/	.	.	.
.	.	.	.	4F/	.	4e\	.
2BB-/	-go	.	.	1B-y\	.	1d\	.
=71-	=71-	=71-	=71-	=71-	=71-	=71-	=71-
2D/	dum	1f	.	.	.	.	.
2.F\	Vir-	.	.	2.A/	.	2c\	.
*	*	*Xlig	*	*	*	*	*
*	*	*lig	*	*	*	*	*
.	.	1c	.	.	.	2f\	.
8E\L	.	.	.	8G/L	.	.	.
8D\J	.	.	.	8F/J	.	.	.
4C/	.	.	.	2.G/	.	1e-X\	.
4D/	.	.	.	.	.	.	.
=72-	=72-	=72-	=72-	=72-	=72-	=72-	=72-
2E-X\	.	1B-	.	.	.	.	.
.	.	.	.	4A/	.	.	.
2.BB-/	.	.	.	2.B-\	.	2d\	.
*	*	*Xlig	*	*	*	*	*
*	*	*lig	*	*	*	*	*
.	.	1d	.	.	.	1.f	.
4C/	.	.	.	8A/L	.	.	.
.	.	.	.	8G/J	.	.	.
4D/	.	.	.	4F/	.	.	.
4Eny\	.	.	.	4G/	.	.	.
=73-	=73-	=73-	=73-	=73-	=73-	=73-	=73-
2F\	.	1c	.	4A/	.	.	.
.	.	.	.	4B-\	.	.	.
2A\	.	.	.	1c	.	2eny\	.
*	*	*Xlig	*	*	*	*	*
*	*	*lig	*	*	*	*	*
1G	.	1d	.	.	.	1g	.
!	!	!	!	!LO:TX:t=P:problem:# above	!	!	!
!	!	!	!	!LO:N:acc=#	!	!	!
.	.	.	.	2Bn\	.	.	.
=74-	=74-	=74-	=74-	=74-	=74-	=74-	=74-
4C/	.	1c	.	2c\	-go	1e	-go
*	*	*	*	*	*	*	*Xij
4D/	.	.	.	.	.	.	.
4E\	.	.	.	1G	du(m)	.	.
4F\	.	.	.	.	.	.	.
*	*	*Xlig	*	*	*	*	*
4G\	.	1B-	.	.	.	2.d\	dum
4A\	.	.	.	.	.	.	.
1B-\	.	.	.	2.d\	Vir-	.	.
.	.	.	.	.	.	4e\	.
=75-	=75-	=75-	=75-	=75-	=75-	=75-	=75-
*	*	*lig	*	*	*	*	*
.	.	1d	.	.	.	1.f	.
!	!	!	!	!LO:SIC:v:t=custos B	!	!	!
.	.	.	.	4c\	.	.	.
!	!	!	!	!LO:PB:g=original	!	!	!
2BB-/	.	.	.	2B-y\	.	.	.
!	!	!	!	!LO:TX:t=P:problem:kreska pseudotaktowa	!	!	!
2F\	.	1c	.	2A/	.	.	.
2C/	.	.	.	1c\	.	2e\	.
*	*	*Xlig	*	*	*	*	*
=76-	=76-	=76-	=76-	=76-	=76-	=76-	=76-
*	*	*lig	*	*	*	*	*
!	!	!	!	!	!	!LO:SIC:v:t=custos g	!
1G	.	1d	.	.	.	1g	Vir-
!	!	!	!	!LO:TX:t=P:problem:# above	!	!	!
!	!	!	!	!LO:N:acc=#	!	!	!
.	.	.	.	2Bn\	.	.	.
!	!	!	!	!LO:TX:t=P:problem:kreska pseudotaktowa	!	!LO:LB:g=original	!
2C/	-go	1c	.	2c\	.	0g	-go
2.C/	De-	.	.	2G/	-go	.	.
*	*	*Xlig	*	*	*	*	*
=77-	=77-	=77-	=77-	=77-	=77-	=77-	=77-
.	.	1G	.	2c\	De-	.	.
4D/	.	.	.	.	.	.	.
2.E-X\	.	.	.	4B-y\	-um	.	.
.	.	.	.	4A/	.	.	.
*	*	*lig	*	*	*	*	*
!	!	!	!	!LO:TX:t=P:problem:kreska pseudotaktowa	!	!	!
.	.	1B-	De-	2G/	.	1r	.
8D/L	.	.	.	.	.	.	.
8C/J	.	.	.	.	.	.	.
4BB-/	.	.	.	1d\	et	.	.
4C/	.	.	.	.	.	.	.
=78-	=78-	=78-	=78-	=78-	=78-	=78-	=78-
4D/	.	1A	.	.	.	2r	.
4Eny/	.	.	.	.	.	.	.
!LO:SIC:v:t=custos E	!	!	!	!	!	!	!
1F	.	.	.	4c\	.	2c/	De-
.	.	.	.	4B-\	.	.	.
*	*	*Xlig	*	*	*	*	*
*	*	*lig	*	*	*	*	*
.	.	1G	-um	0c	Ho-	2g\	-um
!LO:LB:g=original	!	!	!	!	!	!	!
2E\	.	.	.	.	.	2g\	et
=79-	=79-	=79-	=79-	=79-	=79-	=79-	=79-
2F\	-um	1F	.	.	.	2a\	Ho-
2A\	et	.	.	.	.	2e\	.
*	*	*Xlig	*	*	*	*	*
2.G\	Ho-	1B-	et	4d\	.	1.g	.
!	!	!	!	!LO:TX:t=P:problem:kreska pseudotaktowa	!	!	!
.	.	.	.	4c\	.	.	.
.	.	.	.	4B-\	.	.	.
4F\	.	.	.	4A\	.	.	.
=80-	=80-	=80-	=80-	=80-	=80-	=80-	=80-
*	*	*lig	*	*	*	*	*
2E-X\	.	1B-	Ho-	4G/	.	.	.
!	!	!	!	!LO:TX:t=P:problem:kreska pseudotaktowa	!	!	!
.	.	.	.	4A/	.	.	.
2D/	.	.	.	1B-	.	2f\	.
2C/	.	1c	.	.	.	2e-X\	.
2C/	-mi-	.	.	2A/	-mi-	4d\	.
.	.	.	.	.	.	4c\	.
*	*	*Xlig	*	*	*	*	*
=81-	=81-	=81-	=81-	=81-	=81-	=81-	=81-
2.BB-/	-nem	1d	.	1B-	-nem	0f	.
4C/	.	.	.	.	.	.	.
*	*	*lig	*	*	*	*	*
!	!	!	!	!LO:TX:t=P:problem:kreska pseudotaktowa:między nutą a kropką	!	!	!
2D/	.	1d	-mi-	2.F/	De-	.	.
2BB-/	De-	.	.	.	.	.	.
.	.	.	.	4G/	.	.	.
=82-	=82-	=82-	=82-	=82-	=82-	=82-	=82-
!	!	!	!	!LO:TX:t=P:problem:kreska pseudotaktowa	!	!	!
2F\	-u(m)	1c	.	1.A	.	2.f\	.
2FF/	et	.	.	.	.	.	.
.	.	.	.	.	.	4eny\	.
*	*	*Xlig	*	*	*	*	*
*	*	*lig	*	*	*	*	*
4GG/	Ho-	1B-	.	.	.	4d\	.
4AA/	.	.	.	.	.	4c/	.
4BB-/	.	.	.	1G/	.	1d\	-mi-
4C/	.	.	.	.	.	.	.
=83-	=83-	=83-	=83-	=83-	=83-	=83-	=83-
*lig	*	*	*	*	*	*	*
1D	.	1A	.	.	.	.	.
.	.	.	.	2F/	-um	2d\	-nem
*	*	*Xlig	*	*	*	*	*
*	*	*lig	*	*	*	*	*
!	!	!	!	!LO:TX:t=P:problem:kreska pseudotaktowa	!	!	!
1Eny	.	1G	.	2B-\	et	2r	.
.	.	.	.	2c\	Ho-	2g\	et
*Xlig	*	*	*	*	*	*	*
=84-	=84-	=84-	=84-	=84-	=84-	=84-	=84-
2.D/	.	1A	.	1d	-mi-	2g\	Ho-
!	!	!	!	!	!	!LO:TX:t=P:problem:# above	!
.	.	.	.	.	.	2f#X\	-mi-
4D/	-mi-	.	.	.	.	.	.
*	*	*Xlig	*	*	*	*	*
*	*	*lig	*	*	*	*	*
!	!	!	!	!LO:TX:t=P:problem:kreska pseudotaktowa:między nutą a kropką	!	!	!
2GG/	-nem	1B-	-nem	2.d\	-ne(m)	2g\	-ne(m)
4GG/	ge-	.	.	.	.	1d\	ge-
4AA/	.	.	.	4c\	.	.	.
=85-	=85-	=85-	=85-	=85-	=85-	=85-	=85-
!	!	!LO:SIC:v:t=custos G	!	!LO:TX:t=P:problem:kreska pseudotaktowa	!	!	!
4BB-/	.	1G	.	2B-\	ge-	.	.
4GG/	.	.	.	.	.	.	.
1C	.	.	.	2c\	-nu-	2e-X\	-nu-
*	*	*Xlig	*	*	*	*	*
!	!	!LO:LB:g=original	!	!	!	!	!
.	.	1G	ge-	2d\	-i-	1d	-i-
2BB-/	-nu-	.	.	2D/	-ſti	.	.
=86-	=86-	=86-	=86-	=86-	=86-	=86-	=86-
2AA/	-i-	1c	-nu-	1A	.	2e-\	-ſti
2FF/	-sti	.	.	.	.	1fny	.
*	*	*lig	*	*	*	*	*
4BB-/	ge-	1d	-i-	2.F/	ge-	.	.
4C/	.	.	.	.	.	.	.
4D/	.	.	.	.	.	2f\	ge-
!	!	!	!	!LO:SIC:v:t=custos A	!	!	!
4E\	.	.	.	4G/	.	.	.
!	!	!	!	!LO:LB:g=original	!	!	!
=87-	=87-	=87-	=87-	=87-	=87-	=87-	=87-
4F\	.	1c	.	4A/	.	2f\	-nu-
8E\L	.	.	.	4F/	.	.	.
8D\J	.	.	.	.	.	.	.
2.C/	.	.	.	4G/	.	4eny\	-i-
.	.	.	.	8A/L	.	4d\	.
.	.	.	.	8B-/J	.	.	.
*	*	*Xlig	*	*	*	*	*
.	.	1G	.	2c\	.	4e\	.
!	!	!	!	!	!	!LO:SIC:v:t=custos g	!
!	!	!	!	!	!	!LO:SIC:v:t=custos słowny "sti"	!
4D/	.	.	.	.	.	4f\	.
!LO:SIC:v:t=custos BB	!	!	!	!	!	!LO:PB:g=original	!
1E-X\	.	.	.	4B-\	.	2.g\	.
.	.	.	.	4A/	.	.	.
=88-	=88-	=88-	=88-	=88-	=88-	=88-	=88-
*	*	*lig	*	*	*	*	*
.	.	1B-	.	2G/	.	.	.
.	.	.	.	.	.	4e-X\	.
!LO:LB:g=original	!	!	!	!	!	!	!
2BB-/	-nu-	.	.	2d\	-nu-	1g	.
2C/	-i-	1A	.	2e\	.	.	.
2D/	-ſti	.	.	4d\	-i-	2f\	-ſti
.	.	.	.	4c\	.	.	.
*	*	*Xlig	*	*	*	*	*
=89-	=89-	=89-	=89-	=89-	=89-	=89-	=89-
2GG/	.	1G	.	4B-\	.	1g	.
.	.	.	.	4A\	.	.	.
2.G\	ge-	.	.	2.B-\	.	.	.
*	*	*lig	*	*	*	*	*
.	.	1d	.	.	.	2rf	.
8F\L	.	.	.	8A\L	.	.	.
8Eny\J	.	.	.	8G\J	.	.	.
4D\	.	.	.	4F/	.	1f\	ge-
!	!	!	!	!LO:TX:t=P:problem:kreska pseudotaktowa	!	!	!
4E\	.	.	.	4G/	.	.	.
=90-	=90-	=90-	=90-	=90-	=90-	=90-	=90-
2F\	.	1c	.	4A/	.	.	.
.	.	.	.	4B-/	.	.	.
!	!	!	!	!LO:TX:t=P:problem:kreska pseudotaktowa	!	!	!
2FF/	.	.	.	2A/	.	2f\	-nu-
*lig	*	*Xlig	*	*	*	*	*
*	*	*lig	*	*	*	*	*
1GG	-nu-	1B-	.	2G/	.	4d\	-i-
.	.	.	.	.	.	8eny\L	.
.	.	.	.	.	.	8f\J	.
!	!	!	!	!LO:TX:t=P:problem:kreska pseudotaktowa	!	!	!
.	.	.	.	2d\	.	2.g\	.
=91-	=91-	=91-	=91-	=91-	=91-	=91-	=91-
*col	*	*	*	*	*	*	*
!	!	!	!	!LO:TX:t=P:problem:kreska pseudotaktowa	!	!	!
2.AA/	.	1A	.	0c	-ſti	.	.
.	.	.	.	.	.	4f\	.
.	.	.	.	.	.	1f	.
*Xlig	*	*Xlig	*	*	*	*	*
4BB-/	-i-	.	.	.	.	.	.
*Xcol	*	*	*	*	*	*	*
0C	-ſti	1G	.	.	.	.	.
.	.	.	.	.	.	4e\	.
.	.	.	.	.	.	4d\	.
=92-	=92-	=92-	=92-	=92-	=92-	=92-	=92-
*	*	*lig	*	*	*	*	*
.	.	1G	-ſti	2.c\	ge-	1e	.
.	.	.	.	4B-\	.	.	.
1FF	.	1F	.	4A/	.	2f\	-ſti
.	.	.	.	4G/	.	.	.
*	*	*	*	*	*	*	*ij
.	.	.	.	4A/	.	2.f\	ge-
.	.	.	.	4B-\	.	.	.
*	*	*Xlig	*	*	*	*	*
=93-	=93-	=93-	=93-	=93-	=93-	=93-	=93-
*	*	*lig	*	*	*	*	*
2.F\	ge-	1A	.	0c	.	.	.
.	.	.	.	.	.	8e\L	-nu-
.	.	.	.	.	.	8d\J	.
.	.	.	.	.	.	4c\	-i-
4E\	.	.	.	.	.	4d\	.
2C/	.	1G	.	.	.	4e\	.
.	.	.	.	.	.	4f\	.
2E-X\	.	.	.	.	.	1g\	.
*	*	*Xlig	*	*	*	*	*
=94-	=94-	=94-	=94-	=94-	=94-	=94-	=94-
*	*	*lig	*	*	*	*	*
2D/	.	1A	.	2d\	nu-	.	.
!	!	!	!	!	!	!LO:TX:t=P:problem:# above	!
2D/	-nu-	.	.	2.d\	-i-	2f#X\	.
1G	-i-	1B-	.	.	.	4g\	.
.	.	.	.	4c\	.	8fny\L	.
.	.	.	.	.	.	8e\J	.
.	.	.	.	2B-\	.	4d\	.
.	.	.	.	.	.	4e\	.
*	*	*Xlig	*	*	*	*	*
=95-	=95-	=95-	=95-	=95-	=95-	=95-	=95-
*	*	*lig	*	*	*	*	*
2F\	-ſti	1c	.	2A/	.	2f\	.
1C	et	.	.	2G/	.	4e\	.
.	.	.	.	.	.	4d\	.
.	.	1G	.	2c\	-ſti	1e	.
2C/	post	.	.	2.c\	ge-	.	.
*	*	*Xlig	*	*	*	*	*
=96-	=96-	=96-	=96-	=96-	=96-	=96-	=96-
2.D/	par-	1F,	.	.	.	1d	.
.	.	.	.	4B-\	-nu-	.	.
.	.	.	.	1B-	-i-	.	.
4Eny\	.	.	.	.	.	.	.
2F\	.	1F	et	.	.	2c/	-ſti
*	*	*	*	*	*	*	*Xij
!	!	!	!	!LO:SIC:v:t=custos B	!	!	!
2FF/	.	.	.	2A/	.	2c/	et
!	!	!	!	!LO:LB:g=original	!	!	!
=97-	=97-	=97-	=97-	=97-	=97-	=97-	=97-
2BB-/	-tum	1F	post	2B-\	.	2.d\	post
1D	Vir-	.	.	4A/	.	.	.
!	!	!	!	!	!	!LO:SIC:v:t=custos f	!
.	.	.	.	4G/	.	4e\	.
!	!	!	!	!	!	!LO:LB:g=original	!
*	*	*lig	*	*	*	*	*
.	.	1A	par-	2F/	-ſti	2f\	par-
2C/	.	.	.	2c\	.	2e\	.
=98-	=98-	=98-	=98-	=98-	=98-	=98-	=98-
2BB-/	.	1B-	.	2F/	et	2d\	.
*lig	*	*	*	*	*	*	*
1GG	.	.	.	4B-\	post	2.g\	.
.	.	.	.	4c\	.	.	.
*	*	*Xlig	*	*	*	*	*
.	.	1G	-tu(m)	4d\	.	.	.
.	.	.	.	4B-\	.	4f\	.
1C/	.	.	.	1c\	par-	4e\	.
.	.	.	.	.	.	4d\	.
*Xlig	*	*	*	*	*	*	*
=99-	=99-	=99-	=99-	=99-	=99-	=99-	=99-
*	*	*lig	*	*	*	*	*
.	.	1G	Vir-	.	.	2e\	.
1BB-	.	.	.	2d\	.	1d	.
.	.	1F	.	2B-\	-tum	.	.
!LO:SIC:v:t=custos GG	!	!	!	!	!	!	!
2AA/	.	.	.	4c\	Vir-	2c/	-tum
.	.	.	.	4d\	.	.	.
*	*	*Xlig	*	*	*	*	*
!LO:LB:g=original	!	!	!	!	!	!	!
=100-	=100-	=100-	=100-	=100-	=100-	=100-	=100-
!	!	!LO:SIC:v:t=custos B	!	!	!	!	!
2GG/	-go	1G	.	2e-X\	.	2.B-/	Vir-
1G	et	.	.	2.d\	.	.	.
.	.	.	.	.	.	4c/	.
!	!	!LO:LB:g=original	!	!	!	!	!
*	*	*lig	*	*	*	*	*
.	.	1B-	.	.	.	2d\	.
.	.	.	.	4c\	.	.	.
2G\	post	.	.	1B-\	.	2e\	.
=101-	=101-	=101-	=101-	=101-	=101-	=101-	=101-
1F	.	1c	.	.	.	0f	.
.	.	.	.	2A\	.	.	.
*	*	*Xlig	*	*	*	*	*
*	*	*lig	*	*	*	*	*
2.BB-/	par-	1B-	-go	2.d\	.	.	.
4C/	.	.	.	4eny\	.	.	.
=102-	=102-	=102-	=102-	=102-	=102-	=102-	=102-
4D/	.	1A	.	1f	.	1f	-go
4E\	.	.	.	.	.	.	.
1F	.	.	.	.	.	.	.
*	*	*Xlig	*	*	*	*	*
*	*	*lig	*	*	*	*	*
.	.	1c	.	2F/	.	1r	.
2E\	.	.	.	2G/	.	.	.
=103-	=103-	=103-	=103-	=103-	=103-	=103-	=103-
*	*	*	*	*	*	*	*ij
2D/	.	1d	.	4A/	.	2f\	et
.	.	.	.	4F/	.	.	.
1BB-	-tum	.	.	1B-	.	1d	post
*	*	*Xlig	*	*	*	*	*
*	*	*lig	*	*	*	*	*
.	.	1f	.	.	.	.	.
1F\	Vir-	.	.	4A/	.	4c\	par-
.	.	.	.	4G/	.	8d\L	.
.	.	.	.	.	.	8e\J	.
=104-	=104-	=104-	=104-	=104-	=104-	=104-	=104-
.	.	1c	.	2A/	.	2f\	-tum
4C/	.	.	.	4G/	-go	1e-X	Vir-
4D/	.	.	.	4F/	.	.	.
*	*	*Xlig	*	*	*	*	*
4E-X\	-go	1B-,	.	4G/	.	.	.
4F\	.	.	.	4A/	.	.	.
1G\	in-	.	.	4B-\	.	2d\	.
.	.	.	.	4c\	.	.	.
=105-	=105-	=105-	=105-	=105-	=105-	=105-	=105-
*	*	*lig	*	*	*	*	*
.	.	1B-	in-	2d\	.	2d\	-go
*	*	*	*	*	*	*	*Xij
2G\	-ui-	.	.	2B-\	in-	2eny\	in-
2F\	-o-	1c	.	2B-\	-ui-	4f\	-ui-
.	.	.	.	.	.	4g\	.
2FF/	-la-	.	.	2A\	-o-	2.a\	-o-
*	*	*Xlig	*	*	*	*	*
=106-	=106-	=106-	=106-	=106-	=106-	=106-	=106-
*	*	*lig	*	*	*	*	*
!	!	!	!	!LO:SIC:v:t=custos B	!	!	!
4GG/	.	1B-	-ui-	0d	-la-	.	.
4AA/	.	.	.	.	.	4g\	.
4BB-/	.	.	.	.	.	1g	-la-
4C/	.	.	.	.	.	.	.
1D	.	1A	.	.	.	.	.
.	.	.	.	.	.	2f#X\	.
*	*	*Xlig	*	*	*	*	*
!	!	!	!	!LO:LB:g=original	!	!	!
=107-	=107-	=107-	=107-	=107-	=107-	=107-	=107-
2GG/	-ta	1G	.	2B-\	-ta	4g\	.
.	.	.	.	.	.	4fny\	.
1C	in-	.	.	1c	.	4e\	.
.	.	.	.	.	.	4d\	.
*	*	*lig	*	*	*	*	*
.	.	1G	-o-	.	.	2e\	.
1BB-/	-ui-	.	.	2d\	per-	2.d\	.
=108-	=108-	=108-	=108-	=108-	=108-	=108-	=108-
.	.	1F	.	2B-\	man-	.	.
!	!	!	!	!	!	!LO:SIC:v:t=custos f	!
.	.	.	.	.	.	4e\	.
!	!	!	!	!	!	!LO:LB:g=original	!
2AA/	-o-	.	.	2c\	-ſi-	1f	.
*	*	*Xlig	*	*	*	*	*
*	*	*lig	*	*	*	*	*
2BB-/	.	1G	-la-	2d\	-ſti	.	.
2C/	-la-	.	.	2G/	in-	2e\	.
=109-	=109-	=109-	=109-	=109-	=109-	=109-	=109-
2GG/	-ta	1B-	.	1G	-ui-	1d	-ta
2.G\	per-	.	.	.	.	.	.
*	*	*Xlig	*	*	*	*	*
.	.	1B-	-ta	2d\	-o-	1.g	.
4F\	.	.	.	.	.	.	.
1E-X\	.	.	.	1e-X\	-la-	.	.
=110-	=110-	=110-	=110-	=110-	=110-	=110-	=110-
.	.	1B-	per-	.	.	.	.
!LO:SIC:v:t=custos F	!	!	!	!	!	!	!
2BB-/	-man-	.	.	2d\	-ta	4f\	per-
.	.	.	.	.	.	4e\	.
!LO:LB:g=original	!	!	!	!	!	!	!
*lig	*	*lig	*	*	*	*	*
1F	-ſi-	1A	-man-	2c\	per-	1.f	.
.	.	.	.	2.d\	-man-	.	.
=111-	=111-	=111-	=111-	=111-	=111-	=111-	=111-
1G	.	1B-	.	.	.	.	.
.	.	.	.	4c\	.	.	.
.	.	.	.	1B-	.	2e\	-man-
*Xlig	*	*Xlig	*	*	*	*	*
*	*	*lig	*	*	*	*	*
1F	-ſti	1c	.	.	.	1f	-ſi-
.	.	.	.	4A/	.	.	.
.	.	.	.	4G/	.	.	.
=112-	=112-	=112-	=112-	=112-	=112-	=112-	=112-
*	*ij	*	*	*	*	*	*
2BB-/	per-	1B-	.	2F/	.	0.d	-ſti
2.GG/	-man-	.	.	2G/	-ſi-	.	.
*	*	*Xlig	*	*	*	*	*
*	*	*lig	*	*	*	*	*
.	.	1B-	-ſi-	2D/	-ſti	.	.
4AA/	.	.	.	.	.	.	.
4BB-/	.	.	.	1G/	per-	.	.
4C/	.	.	.	.	.	.	.
=113-	=113-	=113-	=113-	=113-	=113-	=113-	=113-
1D	.	1A	.	.	.	.	.
.	.	.	.	2F/	-man-	.	.
*	*	*Xlig	*	*	*	*	*
2.GG/	-ſi-	1G	.	4G/	.	1.d	per-
.	.	.	.	4A/	.	.	.
.	.	.	.	4B-\	.	.	.
4AA/	.	.	.	4c\	.	.	.
=114-	=114-	=114-	=114-	=114-	=114-	=114-	=114-
*	*	*lig	*	*	*	*	*
2BB-/	.	1G	.	2d\	.	.	.
2C/	.	.	.	4c\	.	2e\	-man-
.	.	.	.	4B-\	.	.	.
2FF/	.	1A	.	1c	.	2.f\	-ſi-
2F\	.	.	.	.	.	.	.
.	.	.	.	.	.	8e\L	.
.	.	.	.	.	.	8f\J	.
*	*	*Xlig	*	*	*	*	*
=115-	=115-	=115-	=115-	=115-	=115-	=115-	=115-
!	!	!	!	!LO:N:vis=2	!	!	!
1BB-	.	1B-	-ſti.	1d	-ſi-	4g\	.
.	.	.	.	.	.	4e\	.
.	.	.	.	.	.	1f	.
!	!	!LO:SIC:v:t=custos F	!	!LO:N:vis=2	!	!	!
1GG	-ſti	1G;	.	1c	-ſti	.	.
.	.	.	.	.	.	2e\	-ſti
!	!	!LO:LB:g=original	!	!	!	!	!
=116-	=116-	=116-	=116-	=116-	=116-	=116-	=116-
*	*	*lig	*	*	*	*	*
1FF	De-	1F	De-	4A/	De-	2r	.
.	.	.	.	4G/	.	.	.
.	.	.	.	4A/	.	1f	De-
.	.	.	.	4B-\	.	.	.
1C	.	1G	.	1c	i	.	.
.	.	.	.	.	.	4e\	.
.	.	.	.	.	.	4d\	.
*	*	*Xlig	*	*	*	*	*
=117-	=117-	=117-	=117-	=117-	=117-	=117-	=117-
2C/	-i	1G	-i	2c\	ge-	4e\	.
.	.	.	.	.	.	4f\	.
2.E-X\	ge-	.	.	2.B-\	.	2.g\	.
*	*	*lig	*	*	*	*	*
.	.	1B-	.	.	.	.	.
!	!	!	!	!LO:SIC:v:t=custos d	!	!	!
8D/L	.	.	.	4c\	.	8f\L	.
8C/J	.	.	.	.	.	8e\J	.
!	!	!	!	!LO:LB:g=original	!	!	!
4BB-/	.	.	.	1d\	.	4d\	.
4C/	.	.	.	.	.	4e\	.
=118-	=118-	=118-	=118-	=118-	=118-	=118-	=118-
4D/	.	1A	.	.	.	1f	-i
4Eny\	.	.	.	.	.	.	.
2F\	.	.	.	2c\	-ni-	.	.
*	*	*Xlig	*	*	*	*	*
*	*	*lig	*	*	*	*	*
1BB-	.	1B-	.	2d\	-trix	2f\	ge-
.	.	.	.	2.d\	De-	1f\	-ni-
=119-	=119-	=119-	=119-	=119-	=119-	=119-	=119-
1C	.	1G	.	.	.	.	.
.	.	.	.	4c\	.	.	.
.	.	.	.	1c	.	2e\	-trix
*lig	*	*Xlig	*	*	*	*	*
*	*	*lig	*	*	*	*	*
1D	-ni-	1F	.	.	.	2d\	ge-
.	.	.	.	2B-\	-i	1f\	.
=120-	=120-	=120-	=120-	=120-	=120-	=120-	=120-
*col	*	*	*	*lig	*	*	*
2.C/	.	1G,	.	1c	ge-	.	.
!	!	!	!	!	!	!LO:SIC:v:t=custos f	!
.	.	.	.	.	.	2e\	.
*Xlig	*	*Xlig	*	*	*	*	*
4C/	-trix	.	.	.	.	.	.
!	!	!	!	!	!	!LO:LB:g=original	!
*Xcol	*ij	*lig	*	*col	*	*	*
2FF/	De-	1F	ge-	2.A\	.	2f\	.
2F\	-i	.	.	.	.	4c\	.
*	*	*	*	*Xlig	*	*	*
.	.	.	.	4B-\	.	4d\	.
*	*	*	*	*Xcol	*	*	*
=121-	=121-	=121-	=121-	=121-	=121-	=121-	=121-
!LO:SIC:v:t=custos G	!	!	!	!	!	!	!
1C	ge-	1G	.	1c	.	4e\	.
.	.	.	.	.	.	4f\	.
.	.	.	.	.	.	1g	.
*	*	*Xlig	*	*	*	*	*
!LO:LB:g=original	!	!	!	!	!	!	!
*lig	*	*lig	*	*lig	*	*	*
1G	.	1B-	.	1d	.	.	.
.	.	.	.	.	.	2g\	-ni-
=122-	=122-	=122-	=122-	=122-	=122-	=122-	=122-
*col	*	*	*	*col	*	*	*
!	!	!	!	!LO:TX:t=P:problem:♭ przed ligaturą	!	!	!
2.C/	.	1c	.	2.e-X\	.	1.g	-trix
*Xlig	*	*Xlig	*	*Xlig	*	*	*
4C/	.	.	.	4e-\	ni-	.	.
*Xcol	*	*	*	*Xcol	*	*	*
2.G\	.	1B-	-ni-	2d\	-trix	.	.
.	.	.	.	1G/	in-	2d\	De-
4F\	-ni-	.	.	.	.	.	.
=123-	=123-	=123-	=123-	=123-	=123-	=123-	=123-
!	!	!	!	!	!	!LO:SIC:v:s=2e-	!
2E-X\	-trix	1B-	-trix	.	.	2e\	.
*	*Xij	*	*	*	*	*	*
1BB-	in-	.	.	1F	-ter-	4d\	.
.	.	.	.	.	.	4c\	.
*	*	*lig	*	*	*	*	*
.	.	1B-	in-	.	.	2.d\	.
2BB-/	-ter-	.	.	1B-\	-ce-	.	.
.	.	.	.	.	.	4e\	.
=124-	=124-	=124-	=124-	=124-	=124-	=124-	=124-
*lig	*	*	*	*	*	*	*
1F	-ce-	1c	.	.	.	4f\	.
.	.	.	.	.	.	4c\	.
.	.	.	.	2A/	-de	1f	-i
*	*	*Xlig	*	*	*	*	*
*	*	*lig	*	*	*	*	*
1G	.	1B-	-ter-	2G/	pro	.	.
.	.	.	.	1B-\	no-	2e\	.
*Xlig	*	*	*	*	*	*	*
=125-	=125-	=125-	=125-	=125-	=125-	=125-	=125-
1F	.	1c	.	.	.	2.f\	ge-
.	.	.	.	2A/	-bis	.	.
.	.	.	.	.	.	4e\	-ni-
*	*	*Xlig	*	*	*	*	*
*	*	*lig	*	*	*	*	*
2.BB-/	-de	1B-	.	2B-\	in-	2d\	-trix
.	.	.	.	2.d\	-ter-	1f\	in
4C/	.	.	.	.	.	.	.
=126-	=126-	=126-	=126-	=126-	=126-	=126-	=126-
4D/	.	1A	.	.	.	.	.
4Eny\	.	.	.	4c\	.	.	.
1F	.	.	.	1c	-ce-	1f	ter-
*	*	*Xlig	*	*	*	*	*
*	*	*lig	*	*	*	*	*
.	.	1F	-ce-	.	.	.	.
!	!	!	!	!LO:TX:t=P:problem:# above	!	!	!
!	!	!	!	!LO:N:acc=#	!	!	!
2D/	pro	.	.	2Bn\	.	2.f\	-ce-
=127-	=127-	=127-	=127-	=127-	=127-	=127-	=127-
*	*	*	*	*lig	*	*	*
1C	no-	1G	.	1c	.	.	.
.	.	.	.	.	.	8e\L	.
.	.	.	.	.	.	8d\J	.
.	.	.	.	.	.	4e\	.
.	.	.	.	.	.	4f\	.
*	*	*Xlig	*	*	*	*	*
*	*	*lig	*	*col	*	*	*
2GG/	-bis	1B-	.	2.d\	.	1g	.
*	*ij	*	*	*	*	*	*
2.G\	in-	.	.	.	.	.	.
*	*	*	*	*Xlig	*	*	*
.	.	.	.	4c\	.	.	.
*	*	*	*	*Xcol	*	*	*
=128-	=128-	=128-	=128-	=128-	=128-	=128-	=128-
.	.	1G	.	4B-y\	.	2d\	-de
4F\	.	.	.	4A\	.	.	.
1E-X	.	.	.	1G	.	1e-X	in
*	*	*Xlig	*	*	*	*	*
.	.	1B-	-de	.	.	.	.
2D/	-ter-	.	.	2d\	-de	2f\	ter-
=129-	=129-	=129-	=129-	=129-	=129-	=129-	=129-
2E-X\	-ce-	1B-	pro	2G/	p(ro)	2g\	-ce-
2D/	.	.	.	2d\	no-	2f\	-de
*	*	*lig	*	*	*	*	*
1C	-de	1c	no-	2G/	-bis	1e-X	pro
.	.	.	.	2.G/	pro	.	.
=130-	=130-	=130-	=130-	=130-	=130-	=130-	=130-
!	!	!LO:SIC:v:t=custos c	!	!	!	!	!
1G	pro	1B-	.	.	.	2.d\	no-
!	!	!	!	!LO:SIC:v:t=custos B	!	!	!
.	.	.	.	4A/	.	.	.
!	!	!	!	!LO:LB:g=original	!	!	!
.	.	.	.	1B-	.	.	.
!	!	!	!	!	!	!LO:SIC:v:t=custos f	!
.	.	.	.	.	.	4eny\	.
*	*	*Xlig	*	*	*	*	*
!	!	!LO:LB:g=original	!	!	!	!LO:LB:g=original	!
*	*	*lig	*	*	*	*	*
1F	.	1c	.	.	.	1f	.
.	.	.	.	2A/	.	.	.
=131-	=131-	=131-	=131-	=131-	=131-	=131-	=131-
*lig	*	*	*	*	*	*	*
1BB-	no-	1B-	.	2B-\	.	2d\	-bis
.	.	.	.	2d\	.	1f	in-
*	*	*Xlig	*	*	*	*	*
*	*	*lig	*	*	*	*	*
1C	.	1G	.	1c	no-	.	.
.	.	.	.	.	.	2e\	-ter-
*Xlig	*	*	*	*	*	*	*
=132-	=132-	=132-	=132-	=132-	=132-	=132-	=132-
1FF	-bis	1A	.	2c\	-bis	2.f\	-ce-
*	*Xij	*	*	*	*	*	*
.	.	.	.	2.d\	pro	.	.
.	.	.	.	.	.	4e\	.
*	*	*Xlig	*	*	*	*	*
2.GG/	in-	1B-	.	.	.	2d\	.
.	.	.	.	4c\	.	.	.
.	.	.	.	1B-\	.	2g\	.
4AA/	.	.	.	.	.	.	.
=133-	=133-	=133-	=133-	=133-	=133-	=133-	=133-
*	*	*lig	*	*	*	*	*
4BB-/	.	1d	.	.	.	1f	-de
4C/	.	.	.	.	.	.	.
4D/	.	.	.	4A/	.	.	.
4Eny\	.	.	.	4G/	.	.	.
*	*	*	*	*	*	*	*ij
!LO:SIC:v:t=custos FF	!	!	!	!	!	!	!
2F\	.	1c	.	4A/	.	1.f	in-
.	.	.	.	4B-\	.	.	.
!LO:LB:g=original	!	!	!	!	!	!	!
2FF/	-ter-	.	.	4c\	.	.	.
.	.	.	.	4A/	.	.	.
*	*	*Xlig	*	*	*	*	*
=134-	=134-	=134-	=134-	=134-	=134-	=134-	=134-
*	*	*lig	*	*	*	*	*
2BB-/	-ce-	1d	.	2.B-\	.	.	.
2.GG/	.	.	.	.	.	2g\	-ter-
.	.	.	.	4A/	.	.	.
.	.	1B-	.	2G/	.	2d\	-ce-
4AA/	.	.	.	.	.	.	.
4BB-/	.	.	.	2.d\	no-	1g\	.
4C/	.	.	.	.	.	.	.
*	*	*Xlig	*	*	*	*	*
=135-	=135-	=135-	=135-	=135-	=135-	=135-	=135-
*	*	*lig	*	*	*	*	*
1D	.	1A	.	.	.	.	.
.	.	.	.	8c\L	.	.	.
.	.	.	.	8B-\J	.	.	.
!	!	!	!	!	!	!LO:TX:t=P:problem:# above	!
.	.	.	.	2A\	.	2f#X\	.
2.GG/	-de	1G	.	4B-\	.	2g\	-de
.	.	.	.	4A\	.	.	.
.	.	.	.	4B-\	.	1d\	in-
4AA/	.	.	.	4c\	.	.	.
*	*	*Xlig	*	*	*	*	*
=136-	=136-	=136-	=136-	=136-	=136-	=136-	=136-
*	*	*lig	*	*	*	*	*
2BB-/	.	1G	-bis	2d\	.	.	.
2C/	.	.	.	1c	.	2e\	-ter-
2AA/	-pro	1F	.	.	.	2fny\	-ce-
2BB-/	no-	.	.	2.B-\	.	1d\	-de
*	*	*Xlig	*	*	*	*	*Xij
=137-	=137-	=137-	=137-	=137-	=137-	=137-	=137-
*	*	*lig	*	*	*	*	*
1GG	-bis	1G	.	.	.	.	.
.	.	.	.	4A\	.	.	.
.	.	.	.	4B-\	.	2.g\	pro
.	.	.	.	4c\	.	.	.
*lig	*ij	*	*	*	*	*	*
1G	in-	1B-	.	2d\	.	.	.
.	.	.	.	.	.	8f\L	.
.	.	.	.	.	.	8e\J	.
.	.	.	.	1B-\	.	4d\	.
.	.	.	.	.	.	4e\	.
*	*	*Xlig	*	*	*	*	*
=138-	=138-	=138-	=138-	=138-	=138-	=138-	=138-
*	*	*lig	*	*	*	*	*
1F	.	1c	.	.	.	1.f	.
.	.	.	.	2A/	.	.	.
*Xlig	*	*	*	*	*	*	*
1BB-	-ter-	1d	.	2.B-\	.	.	.
.	.	.	.	.	.	4e\	.
!	!	!	!	!LO:SIC:v:t=custos G	!	!	!
.	.	.	.	4A/	-bis	4d\	.
*	*	*Xlig	*	*	*	*	*
!	!	!	!	!LO:LB:g=original	!	!	!
=139-	=139-	=139-	=139-	=139-	=139-	=139-	=139-
*	*	*lig	*	*	*	*	*
1C	-ce-	1c	.	2G/	.	1e-X	.
.	.	.	.	1A	in-	.	.
1.D	-de	1A	.	.	.	1.d	.
.	.	.	.	1F/	-ter-	.	.
*	*	*Xlig	*	*	*	*	*
=140-	=140-	=140-	=140-	=140-	=140-	=140-	=140-
*	*	*lig	*	*	*	*	*
.	.	1B-	.	.	.	.	.
2.E-X\	.	.	.	2G/	-ce-	2.g\	.
.	.	1G	.	2B-\	-de	.	.
4D/	.	.	.	.	.	4f\	.
2C/	.	.	.	2c\	.	2eny\	.
*	*	*Xlig	*	*	*	*	*
=141-	=141-	=141-	=141-	=141-	=141-	=141-	=141-
*	*	*lig	*	*	*	*	*
2BB-/	.	1B-	.	2F/	pro-	2d\	.
2GG/	pro	.	.	2.B-\	-no-	2g\	.
1BB-	no-	1d	.	.	.	1f	no-
.	.	.	.	8A/L	.	.	.
.	.	.	.	8G/J	.	.	.
.	.	.	.	4F/	.	.	.
.	.	.	.	4G/	.	.	.
*	*	*Xlig	*	*	*	*	*
=142-	=142-	=142-	=142-	=142-	=142-	=142-	=142-
*	*	*lig	*	*	*	*	*
!	!	!	!	!	!	!LO:SIC:v:t=custos f	!
2FF/	-bis	1c	.	4A/	.	1f	-bis
*	*Xij	*	*	*	*	*	*
.	.	.	.	4G/	.	.	.
2.F\	pro	.	.	4A/	.	.	.
.	.	.	.	4B-\	.	.	.
!	!	!	!	!	!	!LO:LB:g=original	!
.	.	1A	.	2c\	.	2.f\	pro
4Eny\	.	.	.	.	.	.	.
4D/	.	.	.	1F/	-bis	.	.
4C/	.	.	.	.	.	4e\	.
*	*	*Xlig	*	*	*	*	*
=143-	=143-	=143-	=143-	=143-	=143-	=143-	=143-
*	*	*lig	*	*	*	*	*
2BB-/	.	1B-	.	.	.	2d\	.
2GG/	.	.	.	2G/	p(ro)	2.d\	no-
*lig	*	*	*	*	*	*	*
1D	no-	1A	.	4F/	.	.	.
.	.	.	.	4D/	.	4e\	.
.	.	.	.	1d\	no-	2f\	.
*	*	*Xlig	*	*	*	*	*
=144-	=144-	=144-	=144-	=144-	=144-	=144-	=144-
*	*	*lig	*	*	*	*	*
1E-X	.	1G	.	.	.	2e-X\	.
.	.	.	.	2c\	.	1g	.
*Xlig	*	*	*	*	*	*	*
1D	.	1A	.	0d	-bis	.	.
!	!	!	!	!	!	!LO:TX:t=P:problem:# above	!
.	.	.	.	.	.	2f#X\	-bis
*	*	*Xlig	*	*	*	*	*
=145-	=145-	=145-	=145-	=145-	=145-	=145-	=145-
2GG/	-bis	1B-	.	.	.	2g\	.
*	*ij	*	*	*	*	*	*
2GG/	pro	.	.	.	.	4g\	pro
.	.	.	.	.	.	4fny\	.
*	*	*	*	*	*ij	*	*
1.C	no-	[1Gl;;	.	2.c\	pro	4e-X\	.
.	.	.	.	.	.	4d\	.
.	.	.	.	.	.	1c\	.
.	.	.	.	4d\	.	.	.
=146-	=146-	=146-	=146-	=146-	=146-	=146-	=146-
.	.	0G_	.	2e-X\	.	.	.
2BB-/	.	.	.	1d	no-	2d\	no-
1C	.	.	.	.	.	1e-X	.
.	.	.	.	1c\	.	.	.
=147-	=147-	=147-	=147-	=147-	=147-	=147-	=147-
!	!	!LO:TX:b:B:t=Alleluia Felſztyn à D(omi)nica Reſurrectionis \nad D(omi)nicá Conduct(us) Paschae.	!	!	!	!LO:TX:b:Bi:t=à D(omi)nica Reſurrectionis ad D(omi)nica Conduct(us)	!
0GG;	-bis	0G]	.	.	.	0dl	-bis.
*	*Xij	*	*	*	*	*	*
!	!	!	!	!LO:N:acc=#	!	!	!
.	.	.	.	4Bn\	.	.	.
.	.	.	.	4A\	.	.	.
!LO:TX:a:t=P:problem:brak kreski końcowej	!	!	!	!LO:N:acc=#	!	!	!
.	.	.	.	1Bnl	-bis	.	.
*	*	*	*	*	*Xij	*	*
==	==	==	==	==	==	==	==
*-	*-	*-	*-	*-	*-	*-	*-
!!!system-decoration: [s1,s2,s3,s4]
!!!RDF**kern: < = below
!!!RDF**kern: l = terminal long
!!!ENC: Marta Lawrence
!!!END: 2021-03-16
!!!ENC: Katarzyna Serwa
!!!END: 2021-03-09
